X: 21390
T: Kerry, The
R: polka
M: 2/4
K: Dmajor
|:"D" fA "(G)"BA|"D" fA "(G)"BA|"G" d-[dD]- "Em" [De>]>f|"A" ed BA|
"D" fA BA|"D" fA BA|"G" d-[dD]- "A" [De>]>f|"D" ed d2:|
|:"D" fa fe|"G" ed BA|"D" d-[dD]- [De>]>f|"A" ed BA|
"D" fa fe|"G" ed BA|"Em" d-[dD]- "A" [De>]>f|"D" ed d2:|

